X:453
T:Princess Royal
M:4/4
L:1/8
K:G
dc | B2 A2 G2 dc | B2 A2 G2 d2 | e3 d c2 e2 | d3 c B2 d2 | 
c2 B2 A2 G2 | FGAF D2 dc | BGBG A2 F2 | G4 G2 :| 
d2 | e3 d e3 d | e2 f2 g3 g | g2 f2 e2 d2 | BA G2 A4 | 
G2 G2 A4 | BA G2 g3 g | g2 d2 e4 | d2 B2 c3 c | 
c2 B2 A2 G2 | FGAF D2 dc | BGBG A2 F2 | G4 G2 :| 

